images-source/features/assess.svg

<?xml version="1.0" encoding="UTF-8"?>
<svg width="63px" height="63px" viewBox="0 0 63 63" version="1.1" xmlns="http://www.w3.org/2000/svg" xmlns:xlink="http://www.w3.org/1999/xlink">
    <!-- Generator: Sketch 48.2 (47327) - http://www.bohemiancoding.com/sketch -->
    <title>assess</title>
    <desc>Created with Sketch.</desc>
    <defs></defs>
    <g id="platform" stroke="none" stroke-width="1" fill="none" fill-rule="evenodd" transform="translate(-803.000000, -2645.000000)">
        <g id="Group-13" transform="translate(-90.000000, 2381.000000)">
            <g id="Group-4" transform="translate(406.000000, 259.000000)">
                <g id="assess" transform="translate(487.000000, 5.000000)">
                    <rect id="Rectangle-6" fill="#6B8CAE" x="3" y="46" width="9" height="15"></rect>
                    <rect id="Rectangle-6-Copy" fill="#DE437D" x="20" y="33" width="9" height="28"></rect>
                    <rect id="Rectangle-6-Copy-2" fill="#00AAE3" x="50" y="24" width="9" height="37"></rect>
                    <rect id="Rectangle-6-Copy-3" fill="#FFAF1D" x="34" y="38" width="9" height="23"></rect>
                    <g id="analytics" fill="#000000" fill-rule="nonzero">
                        <path d="M61.5672105,60.2573509 L1.30998246,60.2573509 C0.586894737,60.2573509 0,60.8441228 0,61.5672105 C0,62.2902982 0.586894737,62.877193 1.30998246,62.877193 L61.5673333,62.877193 C62.2904211,62.877193 62.8773158,62.2902982 62.8773158,61.5672105 C62.877193,60.8441228 62.2902982,60.2573509 61.5672105,60.2573509 Z" id="Shape"></path>
                        <path d="M11.7894737,44.5380526 L3.92982456,44.5380526 C3.20673684,44.5380526 2.61984211,45.1249474 2.61984211,45.8480351 L2.61984211,61.5673333 C2.61984211,62.2902982 3.20673684,62.877193 3.92982456,62.877193 L11.7894737,62.877193 C12.5125614,62.877193 13.0994561,62.2902982 13.0994561,61.5672105 L13.0994561,45.8479123 C13.0994561,45.1248246 12.5125614,44.5380526 11.7894737,44.5380526 Z M10.4794912,60.2573509 L5.23980702,60.2573509 L5.23980702,47.1578947 L10.479614,47.1578947 L10.479614,60.2573509 L10.4794912,60.2573509 Z" id="Shape"></path>
                        <path d="M27.5087719,31.4385965 L19.6491228,31.4385965 C18.9260351,31.4385965 18.3391404,32.0254912 18.3391404,32.7485789 L18.3391404,61.5673333 C18.3391404,62.2904211 18.9260351,62.8773158 19.6491228,62.8773158 L27.5087719,62.8773158 C28.2318596,62.8773158 28.8187544,62.2904211 28.8187544,61.5673333 L28.8187544,32.7485789 C28.8187544,32.0254912 28.2318596,31.4385965 27.5087719,31.4385965 Z M26.1987895,60.2573509 L20.9589825,60.2573509 L20.9589825,34.0584386 L26.1987895,34.0584386 L26.1987895,60.2573509 Z" id="Shape"></path>
                        <path d="M43.2280702,36.6784035 L35.3684211,36.6784035 C34.6453333,36.6784035 34.0584386,37.2652982 34.0584386,37.988386 L34.0584386,61.5673333 C34.0584386,62.2904211 34.6453333,62.8773158 35.3684211,62.8773158 L43.2280702,62.8773158 C43.9511579,62.8773158 44.5380526,62.2904211 44.5380526,61.5673333 L44.5380526,37.988386 C44.5380526,37.2651754 43.9511579,36.6784035 43.2280702,36.6784035 Z M41.9180877,60.2573509 L36.6782807,60.2573509 L36.6782807,39.2982456 L41.9180877,39.2982456 L41.9180877,60.2573509 Z" id="Shape"></path>
                        <path d="M58.9473684,20.9591053 L51.0877193,20.9591053 C50.3646316,20.9591053 49.7777368,21.546 49.7777368,22.2690877 L49.7777368,61.5673333 C49.7777368,62.2904211 50.3646316,62.8773158 51.0877193,62.8773158 L58.9473684,62.8773158 C59.6704561,62.8773158 60.2573509,62.2904211 60.2573509,61.5673333 L60.2573509,22.2690877 C60.2573509,21.5458772 59.6704561,20.9591053 58.9473684,20.9591053 Z M57.637386,60.2573509 L52.3975789,60.2573509 L52.3975789,23.5789474 L57.637386,23.5789474 L57.637386,60.2573509 Z" id="Shape"></path>
                        <path d="M7.85964912,23.5789474 C4.96987719,23.5789474 2.61984211,25.9289825 2.61984211,28.8187544 C2.61984211,31.7085263 4.96987719,34.0585614 7.85964912,34.0585614 C10.7494211,34.0585614 13.0994561,31.7085263 13.0994561,28.8187544 C13.0994561,25.9289825 10.7494211,23.5789474 7.85964912,23.5789474 Z M7.85964912,31.4385965 C6.41347368,31.4385965 5.23980702,30.2622281 5.23980702,28.8187544 C5.23980702,27.3751579 6.41347368,26.1989123 7.85964912,26.1989123 C9.30582456,26.1989123 10.4794912,27.3752807 10.4794912,28.8187544 C10.4794912,30.2622281 9.30582456,31.4385965 7.85964912,31.4385965 Z" id="Shape"></path>
                        <path d="M23.5789474,10.4794912 C20.6891754,10.4794912 18.3391404,12.8295263 18.3391404,15.7192982 C18.3391404,18.6090702 20.6891754,20.9591053 23.5789474,20.9591053 C26.4687193,20.9591053 28.8187544,18.6090702 28.8187544,15.7192982 C28.8187544,12.8295263 26.4687193,10.4794912 23.5789474,10.4794912 Z M23.5789474,18.3391404 C22.1327719,18.3391404 20.9591053,17.1627719 20.9591053,15.7192982 C20.9591053,14.2757018 22.1327719,13.0994561 23.5789474,13.0994561 C25.0251228,13.0994561 26.1987895,14.2758246 26.1987895,15.7192982 C26.1987895,17.1628947 25.0251228,18.3391404 23.5789474,18.3391404 Z" id="Shape"></path>
                        <path d="M39.2982456,15.7192982 C36.4084737,15.7192982 34.0584386,18.0693333 34.0584386,20.9591053 C34.0584386,23.8488772 36.4084737,26.1989123 39.2982456,26.1989123 C42.1880175,26.1989123 44.5380526,23.8488772 44.5380526,20.9591053 C44.5380526,18.0693333 42.1880175,15.7192982 39.2982456,15.7192982 Z M39.2982456,23.5789474 C37.8520702,23.5789474 36.6784035,22.4025789 36.6784035,20.9591053 C36.6784035,19.5155088 37.8520702,18.3392632 39.2982456,18.3392632 C40.7444211,18.3392632 41.9180877,19.5156316 41.9180877,20.9591053 C41.9180877,22.4025789 40.7444211,23.5789474 39.2982456,23.5789474 Z" id="Shape"></path>
                        <path d="M55.0175439,0 C52.1277719,0 49.7777368,2.35003509 49.7777368,5.23980702 C49.7777368,8.12957895 52.1277719,10.479614 55.0175439,10.479614 C57.9073158,10.479614 60.2573509,8.12957895 60.2573509,5.23980702 C60.2573509,2.35003509 57.9073158,0 55.0175439,0 Z M55.0175439,7.85964912 C53.5713684,7.85964912 52.3977018,6.6832807 52.3977018,5.23980702 C52.3977018,3.79621053 53.5713684,2.61996491 55.0175439,2.61996491 C56.4637193,2.61996491 57.637386,3.79633333 57.637386,5.23980702 C57.637386,6.6832807 56.4637193,7.85964912 55.0175439,7.85964912 Z" id="Shape"></path>
                        <path d="M53.1679474,7.08940351 C52.6570702,6.57852632 51.8265263,6.57852632 51.3156491,7.08940351 L41.1505439,17.2545088 C40.6396667,17.765386 40.6396667,18.5959298 41.1505439,19.106807 C41.4073333,19.3608947 41.7425965,19.4893509 42.0779825,19.4893509 C42.4106667,19.4893509 42.7460526,19.3635965 43.0028421,19.106807 L53.1679474,8.94170175 C53.6788246,8.43082456 53.6788246,7.6002807 53.1679474,7.08940351 Z" id="Shape"></path>
                        <path d="M36.130807,17.9357193 L27.7157018,15.5359474 C27.0109123,15.3315965 26.2956842,15.7402982 26.099193,16.4372281 C25.9001228,17.1341579 26.3035439,17.8572456 26.9977719,18.0563158 L35.4128772,20.4560877 C35.5333509,20.4901053 35.6539474,20.5058246 35.7718421,20.5058246 C36.3430175,20.5058246 36.8669123,20.1311404 37.0319649,19.554807 C37.2311579,18.8605789 36.8277368,18.1347895 36.130807,17.9357193 Z" id="Shape"></path>
                        <path d="M21.5354386,17.3515263 C21.0848596,16.7856316 20.2621754,16.6938947 19.6962807,17.1418947 L9.8192807,25.0172632 C9.25338596,25.4705439 9.15907018,26.2931053 9.61235088,26.859 C9.8717193,27.1838246 10.2542632,27.3515789 10.6366842,27.3515789 C10.9222105,27.3515789 11.2104386,27.2572632 11.4515088,27.0686316 L21.3285088,19.1932632 C21.8944035,18.7399825 21.9887193,17.9174211 21.5354386,17.3515263 Z" id="Shape"></path>
                    </g>
                </g>
            </g>
        </g>
    </g>
</svg>

<svg width="63" height="63" viewBox="0 0 63 63" xmlns="http://www.w3.org/2000/svg"><title>assess</title><g fill="none" fill-rule="evenodd"><path fill="#6B8CAE" d="M3 46h9v15H3z"/><path fill="#DE437D" d="M20 33h9v28h-9z"/><path fill="#00AAE3" d="M50 24h9v37h-9z"/><path fill="#FFAF1D" d="M34 38h9v23h-9z"/><g fill="#000" fill-rule="nonzero"><path d="M61.567 60.257H1.31a1.31 1.31 0 0 0 0 2.62h60.257a1.31 1.31 0 0 0 0-2.62z"/><path d="M11.79 44.538H3.93a1.31 1.31 0 0 0-1.31 1.31v15.72c0 .722.587 1.31 1.31 1.31h7.86a1.31 1.31 0 0 0 1.31-1.31v-15.72a1.31 1.31 0 0 0-1.31-1.31zm-1.31 15.72H5.24v-13.1h5.24v13.1zM27.509 31.439h-7.86a1.31 1.31 0 0 0-1.31 1.31v28.818c0 .723.587 1.31 1.31 1.31h7.86a1.31 1.31 0 0 0 1.31-1.31V32.75a1.31 1.31 0 0 0-1.31-1.31zm-1.31 28.818h-5.24V34.058h5.24v26.2zM43.228 36.678h-7.86a1.31 1.31 0 0 0-1.31 1.31v23.58c0 .722.587 1.31 1.31 1.31h7.86a1.31 1.31 0 0 0 1.31-1.31v-23.58a1.31 1.31 0 0 0-1.31-1.31zm-1.31 23.58h-5.24v-20.96h5.24v20.96zM58.947 20.96h-7.86a1.31 1.31 0 0 0-1.31 1.31v39.297c0 .723.588 1.31 1.31 1.31h7.86a1.31 1.31 0 0 0 1.31-1.31V22.27a1.31 1.31 0 0 0-1.31-1.31zm-1.31 39.297h-5.24V23.58h5.24v36.678zM7.86 23.579c-2.89 0-5.24 2.35-5.24 5.24s2.35 5.24 5.24 5.24 5.24-2.35 5.24-5.24-2.35-5.24-5.24-5.24zm0 7.86a2.623 2.623 0 0 1-2.62-2.62 2.622 2.622 0 0 1 2.62-2.62 2.623 2.623 0 0 1 2.62 2.62 2.623 2.623 0 0 1-2.62 2.62zM23.579 10.48c-2.89 0-5.24 2.35-5.24 5.24s2.35 5.24 5.24 5.24 5.24-2.35 5.24-5.24-2.35-5.24-5.24-5.24zm0 7.86a2.623 2.623 0 0 1-2.62-2.62 2.622 2.622 0 0 1 2.62-2.62 2.623 2.623 0 0 1 2.62 2.62 2.622 2.622 0 0 1-2.62 2.62zM39.298 15.72c-2.89 0-5.24 2.35-5.24 5.24 0 2.889 2.35 5.239 5.24 5.239s5.24-2.35 5.24-5.24-2.35-5.24-5.24-5.24zm0 7.859a2.623 2.623 0 0 1-2.62-2.62 2.622 2.622 0 0 1 2.62-2.62 2.623 2.623 0 0 1 2.62 2.62 2.623 2.623 0 0 1-2.62 2.62zM55.018 0c-2.89 0-5.24 2.35-5.24 5.24s2.35 5.24 5.24 5.24 5.24-2.35 5.24-5.24S57.907 0 55.017 0zm0 7.86a2.623 2.623 0 0 1-2.62-2.62 2.622 2.622 0 0 1 2.62-2.62 2.623 2.623 0 0 1 2.62 2.62 2.623 2.623 0 0 1-2.62 2.62z"/><path d="M53.168 7.09a1.31 1.31 0 0 0-1.852 0L41.15 17.254a1.31 1.31 0 0 0 1.852 1.852L53.168 8.942a1.31 1.31 0 0 0 0-1.853zM36.13 17.936l-8.414-2.4a1.297 1.297 0 0 0-1.617.901c-.199.697.205 1.42.899 1.62l8.415 2.4a1.311 1.311 0 0 0 .718-2.52zM21.535 17.352a1.31 1.31 0 0 0-1.839-.21L9.82 25.017a1.309 1.309 0 0 0 .818 2.335c.285 0 .573-.095.815-.283l9.877-7.876c.565-.453.66-1.276.206-1.841z"/></g></g></svg>
